assets/icons/file_icons/python.svg

<?xml version="1.0" encoding="UTF-8"?><svg id="Done" xmlns="http://www.w3.org/2000/svg" xmlns:xlink="http://www.w3.org/1999/xlink" viewBox="0 0 14 14"><defs><style>.cls-1{fill:#00a9fb;}.cls-2{fill:none;}.cls-3{fill:#ff0;}</style><clipPath id="clippath"><path class="cls-2" d="m-65.5539,63.2769l-4.998,2.499c-.2821.141-.6141.141-.8962,0l-4.998-2.499c-.3395-.1697-.5539-.5167-.5539-.8962v-5.7615c0-.3795.2144-.7265.5539-.8962l4.998-2.499c.2821-.141.6141-.141.8962,0l4.998,2.499c.3395.1697.5539.5167.5539.8962v5.7615c0,.3795-.2144.7265-.5539.8962Z"/></clipPath></defs><g id="Layer_44"><path class="cls-1" d="m5,0c-1.2329.2207-2,.7915-2,1.6286v2.3714h-1c-1.0013,0-1.7294.8544-2,2v2c.2436,1.0193.9987,2,2,2h1v-.9973c0-1.1061.8966-2.0027,2.0027-2.0027h3.9973c.5523,0,1-.4477,1-1v-3h1s0-1.3638,0-1.3638c0-.7839-1.2085-1.5069-2-1.6362"/><path class="cls-3" d="m11,4v2c0,1.1046-.8954,2-2,2h-3.5464c-.7995,0-1.4536.6541-1.4536,1.4536v1.5464h-1v1.3737c0,.9012,1.0734,1.3638,2,1.6263h4c.8807-.245,2-.6638,2-1.6263v-2.3737h1c.9077,0,1.6811-.9446,2-2v-2c-.2208-.9923-.9147-2-1.8224-2h-1.1776Z"/><circle cx="5" cy="2" r="1"/><circle cx="9" cy="12" r="1"/></g></svg>

<svg xmlns="http://www.w3.org/2000/svg" viewBox="0 0 14 14"><path fill="#00a9fb" d="M5 0C3.767.22 3 .792 3 1.629V4H2C.999 4 .27 4.854 0 6v2c.244 1.02.999 2 2 2h1v-.997C3 7.897 3.897 7 5.003 7H9a1 1 0 0 0 1-1V3h1V1.636C11 .852 9.792.13 9 0"/><path fill="#ff0" d="M11 4v2a2 2 0 0 1-2 2H5.454C4.654 8 4 8.654 4 9.454V11H3v1.374c0 .9 1.073 1.363 2 1.626h4c.88-.245 2-.664 2-1.626V10h1c.908 0 1.681-.945 2-2V6c-.22-.992-.915-2-1.822-2z"/><circle cx="5" cy="2" r="1"/><circle cx="9" cy="12" r="1"/></svg>
